X: 177
T: No_99_Song_of_the_Buffalo.krn
%%abc-version 2.0
%%abcx-abcm2ps-target-version 5.9.1 (29 Sep 2008)
%%abc-creator hum2abc beta
%%abcx-conversion-date 2020/08/10 18:54:56
%%gracespace 0 6 6
%%humdrum-veritas 1361890985
%%humdrum-veritas-data 2426314989
%%linebreak <none>
%%barnumbers 0
L: 1/8
M: 2/4
%%staves {1 2}
V: 1 clef=bass
V: 2 clef=bass
K: A
[V:1] [K:clef=bass][M:2/4]CC CC3//C// | 
[V:2] [K:clef=bass][M:2/4]G,,G,, G,,G,, | 
[V:1] C2C2 | 
[V:2] G,,G,, G,,G,, | 
[V:1] CC CB,3//A,// | 
[V:2] z4 | 
[V:1] A,2A,2 | 
[V:2] z4 | 
[V:1] CC A,A, ||  
[V:2] z4 ||  
[V:1] [M:3/4]CC A,A, A,F, | 
[V:2] [M:3/4]z6 | 
[V:1] F,4F,2 ||  
[V:2] z6 ||  
[V:1] [M:2/4]A,A, A,A,3//F,// | 
[V:2] [M:2/4]z4 | 
[V:1] F,2F,2 | 
[V:2] z4 | 
[V:1] A,A, A,A,3//A,// | 
[V:2] z4 | 
[V:1] A,2A,2- | 
[V:2] z4 | 
[V:1] A,3A, | 
[V:2] z4 | 
[V:1] A,2A,3/A,/ | 
[V:2] z4 | 
[V:1] A,4 ||  
[V:2] z4 ||  
[V:1] [M:3/4]CC CC C3/B,/ | 
[V:2] [M:3/4]z6 | 
[V:1] B,2A,2F,3/F,/ | 
[V:2] z6 | 
[V:1] F,4D,3/D,/ | 
[V:2] z6 | 
[V:1] D,6 ||  
[V:2] z6 ||  
[V:1] [M:2/4]F,F, F,F, | 
[V:2] [M:2/4]z4 | 
[V:1] F,>D,D,2 ||  
[V:2] z4 ||  
[V:1] [M:3/4]F,F, F,<F, F,3/F,/ | 
[V:2] [M:3/4]z6 | 
[V:1] F,4-F,3/F,/ ||  
[V:2] z6 ||  
[V:1] [M:2/4]F,2F,3/F,/ ||  
[V:2] [M:2/4]z4 ||  
[V:1] [M:3/4]F,4-F,3/F,/ | 
[V:2] [M:3/4]z6 | 
[V:1] F,6 |]  
[V:2] z6 |]  


